X:7325
%16318
T:Tarantella di Montemarano
C:Mario Salvi
S:Organetto diatonico
M:12/8
L:1/8
K:C
e f2e|:d2e f2e ded c2B|A2c e2d cdc B2A|\
B2c d2e ded c2B|1 !Ace!z!Ace! \
efe ez!Ace! f2e:|2 Az!Ace! !A3c3e3! z2c cdc
%Error : Bar 5 is 17/8 not 12/8
||
|:Bz2 BcB B2d ded|cz2 ABA A2c cdc|\
c2B B2c Bcd c2B|1 A2A ABA A2c cdc:|2 !A6-c6-e6-!!A2c2e2!e f2e
%Error : Bar 11 is 1/2 not 12/8
||
|:dzd d2c Bcd c2B|czc c2d efe d2c|\
BzB B2c ded c2B|1 AzA A2B cBA cBA:|2 !A6-c6-e6-!!A2c2e2!A B2c
%Error : Bar 17 is 1/2 not 12/8
||
|:d2z BcB B2B c2d|c2z ABA A2A B2c|\
ded B2c ded c2B|1 AzA ABA AzA B2c:|2 !A3c3e3! efe cAc efe
%Error : Bar 23 is 9/8 not 12/8
||
|:cAc efe ded cdc|B2z ded BEB ded|\
BEB ded cdc BcB|Az2 efe cAc efe|
cAc efe ded cde|f3-fde fed fed|\
edc edc dcB dcB|1 Az2 efe cAc efe:|2 A3 eze fzf efe\
|:dzd dcd eze ded|czc cBc dzd cdc|\
c2B BzB cBc dcd|1
